resources/icons/cisco/speaker.svg

<?xml version="1.0" encoding="UTF-8"?>
<svg xmlns="http://www.w3.org/2000/svg" xmlns:xlink="http://www.w3.org/1999/xlink" width="106pt" height="200pt" viewBox="0 0 106 200" version="1.1">
<defs>
<clipPath id="clip1">
  <path d="M 20 0 L 92 0 L 92 194.242188 L 20 194.242188 Z M 20 0 "/>
</clipPath>
<clipPath id="clip2">
  <path d="M 45 0 L 106 0 L 106 194.242188 L 45 194.242188 Z M 45 0 "/>
</clipPath>
</defs>
<g id="surface1">
<path style="fill-rule:nonzero;fill:rgb(1.176471%,41.176471%,59.607843%);fill-opacity:1;stroke-width:4;stroke-linecap:butt;stroke-linejoin:miter;stroke:rgb(100%,100%,100%);stroke-opacity:1;stroke-miterlimit:4;" d="M 69.343308 272.481671 C 48.402349 268.813101 1.836618 249.86899 1.836618 225.53095 C 1.836618 201.776743 51.205608 180.140024 70.97781 175.260216 " transform="matrix(0.444516,0,0,-0.448276,0,198.275862)"/>
<path style=" stroke:none;fill-rule:nonzero;fill:rgb(1.176471%,41.176471%,59.607843%);fill-opacity:1;" d="M 79.355469 -4.035156 C 71.242188 -4.035156 41.464844 24.734375 33.339844 55.097656 C 29.203125 70.613281 31.203125 87.210938 31.203125 99.941406 C 31.203125 111.359375 29.539062 124.492188 33.25 137.222656 C 41.8125 166.414062 72.878906 192.886719 81.398438 192.886719 "/>
<g clip-path="url(#clip1)" clip-rule="nonzero">
<path style="fill:none;stroke-width:4;stroke-linecap:butt;stroke-linejoin:miter;stroke:rgb(100%,100%,100%);stroke-opacity:1;stroke-miterlimit:4;" d="M 178.521011 451.309195 C 160.269072 451.309195 93.280853 387.13101 75.002551 319.397536 C 65.696435 284.785757 70.195709 247.760216 70.195709 219.361478 C 70.195709 193.890625 66.452173 164.594351 74.800435 136.195613 C 94.062954 71.076322 163.951095 12.021935 183.116949 12.021935 " transform="matrix(0.444516,0,0,-0.448276,0,198.275862)"/>
</g>
<path style=" stroke:none;fill-rule:nonzero;fill:rgb(1.176471%,41.176471%,59.607843%);fill-opacity:1;" d="M 83.449219 193.066406 C 98.921875 193.066406 111.457031 148.589844 111.457031 93.742188 C 111.457031 38.882812 98.921875 -5.59375 83.449219 -5.59375 C 67.996094 -5.59375 55.460938 38.882812 55.460938 93.742188 C 55.460938 148.589844 67.996094 193.066406 83.449219 193.066406 "/>
<g clip-path="url(#clip2)" clip-rule="nonzero">
<path style="fill:none;stroke-width:4;stroke-linecap:butt;stroke-linejoin:miter;stroke:rgb(100%,100%,100%);stroke-opacity:1;stroke-miterlimit:4;" d="M 187.730463 11.621094 C 222.538325 11.621094 250.737879 110.838041 250.737879 233.190505 C 250.737879 355.569111 222.538325 454.786058 187.730463 454.786058 C 152.966539 454.786058 124.766986 355.569111 124.766986 233.190505 C 124.766986 110.838041 152.966539 11.621094 187.730463 11.621094 Z M 187.730463 11.621094 " transform="matrix(0.444516,0,0,-0.448276,0,198.275862)"/>
</g>
<path style=" stroke:none;fill-rule:nonzero;fill:rgb(1.176471%,41.176471%,59.607843%);fill-opacity:1;" d="M 106.753906 80.382812 C 106.683594 76.285156 101.664062 73.046875 95.554688 73.167969 C 89.425781 73.292969 84.386719 68.753906 84.492188 75.601562 L 85.152344 116.210938 C 85.257812 123.054688 90.132812 117.769531 96.265625 117.644531 C 102.394531 117.523438 107.292969 114.089844 107.238281 109.992188 L 106.753906 80.382812 "/>
<path style="fill:none;stroke-width:4;stroke-linecap:butt;stroke-linejoin:miter;stroke:rgb(100%,100%,100%);stroke-opacity:1;stroke-miterlimit:4;" d="M 240.157554 262.992187 C 239.999376 272.133113 228.707252 279.356971 214.963375 279.086839 C 201.17556 278.807993 189.839498 288.933594 190.076764 273.658053 L 191.561876 183.067909 C 191.799143 167.801082 202.766124 179.591046 216.562727 179.869892 C 230.350542 180.140024 241.370249 187.799579 241.247222 196.940505 Z M 240.157554 262.992187 " transform="matrix(0.444516,0,0,-0.448276,0,198.275862)"/>
<path style="fill-rule:nonzero;fill:rgb(1.176471%,41.176471%,59.607843%);fill-opacity:1;stroke-width:4;stroke-linecap:butt;stroke-linejoin:miter;stroke:rgb(100%,100%,100%);stroke-opacity:1;stroke-miterlimit:4;" d="M 148.950585 74.788462 L 188.521351 143.663462 C 196.32478 156.777945 201.052533 140.491587 214.181275 132.71875 C 227.301229 124.911058 234.138017 112.214844 229.445415 104.320012 L 195.700857 47.522536 C 191.017042 39.671274 176.605304 39.592849 163.476562 47.409255 C 160.198771 49.361178 159.223342 50.023437 156.015852 51.077825 " transform="matrix(0.444516,0,0,-0.448276,0,198.275862)"/>
<path style="fill-rule:nonzero;fill:rgb(1.176471%,41.176471%,59.607843%);fill-opacity:1;stroke-width:4;stroke-linecap:butt;stroke-linejoin:miter;stroke:rgb(100%,100%,100%);stroke-opacity:1;stroke-miterlimit:4;" d="M 133.906137 138.034255 C 138.871156 130.104567 141.718353 125.608173 147.808191 125.608173 C 166.991621 125.608173 182.580903 170.336839 182.580903 225.53095 C 182.580903 280.733774 166.991621 325.445012 147.808191 325.445012 C 139.837797 325.445012 135.356098 317.715745 129.485951 304.749399 " transform="matrix(0.444516,0,0,-0.448276,0,198.275862)"/>
<path style="fill-rule:nonzero;fill:rgb(1.176471%,41.176471%,59.607843%);fill-opacity:1;stroke-width:4;stroke-linecap:butt;stroke-linejoin:miter;stroke:rgb(100%,100%,100%);stroke-opacity:1;stroke-miterlimit:4;" d="M 129.380499 176.349459 L 143.194678 176.349459 C 170.348501 176.349459 170.858184 198.378305 170.858184 225.53095 C 170.858184 252.683594 170.348501 274.66887 143.194678 274.66887 L 129.178384 274.66887 " transform="matrix(0.444516,0,0,-0.448276,0,198.275862)"/>
<path style="fill-rule:nonzero;fill:rgb(1.176471%,41.176471%,59.607843%);fill-opacity:1;stroke-width:4;stroke-linecap:butt;stroke-linejoin:miter;stroke:rgb(100%,100%,100%);stroke-opacity:1;stroke-miterlimit:4;" d="M 150.901442 397.213041 L 188.521351 333.496695 C 196.32478 320.382212 201.052533 336.659856 214.181275 344.441406 C 227.301229 352.249099 234.138017 364.945312 229.445415 372.840144 L 195.700857 429.628906 C 191.017042 437.480168 178.195868 438.194712 165.075914 430.378305 " transform="matrix(0.444516,0,0,-0.448276,0,198.275862)"/>
</g>
</svg>

<svg xmlns="http://www.w3.org/2000/svg" viewBox="0 0 31.25 57.5" height="57.5" width="31.25"><defs><clipPath id="a"><path d="M0 9v447h250V9H0z"/></clipPath></defs><g clip-path="url(#a)" transform="matrix(.13 0 0 -.13 0 57.5)"><path d="M69.34 272.48c-20.942-3.671-67.5-22.609-67.5-46.949 0-23.75 49.37-45.39 69.14-50.269" fill="#036998"/><path d="M69.34 272.48c-20.942-3.671-67.5-22.609-67.5-46.949 0-23.75 49.37-45.39 69.14-50.269" fill="none" stroke="#fff" stroke-width="4"/><path d="M178.52 451.309c-18.25 0-85.239-64.18-103.52-131.911-9.3-34.609-4.8-71.636-4.8-100.039 0-25.468-3.75-54.769 4.6-83.16 19.259-65.12 89.149-124.18 108.321-124.18" fill="#036998"/><path d="M178.52 451.309c-18.25 0-85.239-64.18-103.52-131.911-9.3-34.609-4.8-71.636-4.8-100.039 0-25.468-3.75-54.769 4.6-83.16 19.259-65.12 89.149-124.18 108.321-124.18" fill="none" stroke="#fff" stroke-width="4"/><path d="M187.73 11.621c34.809 0 63.008 99.219 63.008 221.57 0 122.379-28.199 221.598-63.008 221.598-34.761 0-62.96-99.219-62.96-221.598 0-122.351 28.199-221.57 62.96-221.57" fill="#036998"/><path d="M187.73 11.621c34.809 0 63.008 99.219 63.008 221.57 0 122.379-28.199 221.598-63.008 221.598-34.761 0-62.96-99.219-62.96-221.598 0-122.351 28.199-221.57 62.96-221.57z" fill="none" stroke="#fff" stroke-width="4"/><path d="M240.16 262.988c-.16 9.141-11.449 16.371-25.199 16.102-13.789-.281-25.121 9.84-24.883-5.43l1.481-90.59c.242-15.269 11.211-3.48 25-3.199 13.793.27 24.812 7.93 24.691 17.07l-1.09 66.047" fill="#036998"/><path d="M240.16 262.988c-.16 9.141-11.449 16.371-25.199 16.102-13.789-.281-25.121 9.84-24.883-5.43l1.481-90.59c.242-15.269 11.211-3.48 25-3.199 13.793.27 24.812 7.93 24.691 17.07l-1.09 66.047z" fill="none" stroke="#fff" stroke-width="4"/><path d="M148.949 74.79l39.571 68.87c7.808 13.121 12.531-3.172 25.66-10.941 13.121-7.809 19.961-20.508 15.269-28.399l-33.75-56.8c-4.679-7.848-19.097-7.93-32.219-.11-3.281 1.95-4.261 2.61-7.46 3.668" fill="#036998"/><path d="M148.949 74.79l39.571 68.87c7.808 13.121 12.531-3.172 25.66-10.941 13.121-7.809 19.961-20.508 15.269-28.399l-33.75-56.8c-4.679-7.848-19.097-7.93-32.219-.11-3.281 1.95-4.261 2.61-7.46 3.668" fill="none" stroke="#fff" stroke-width="4"/><path d="M133.91 138.031c4.961-7.929 7.809-12.422 13.899-12.422 19.179 0 34.769 44.731 34.769 99.922 0 55.199-15.59 99.918-34.769 99.918-7.969 0-12.457-7.73-18.321-20.699" fill="#036998"/><path d="M133.91 138.031c4.961-7.929 7.809-12.422 13.899-12.422 19.179 0 34.769 44.731 34.769 99.922 0 55.199-15.59 99.918-34.769 99.918-7.969 0-12.457-7.73-18.321-20.699" fill="none" stroke="#fff" stroke-width="4"/><path d="M129.379 176.352h13.82c27.153 0 27.66 22.027 27.66 49.179 0 27.149-.507 49.141-27.66 49.141H129.18" fill="#036998"/><path d="M129.379 176.352h13.82c27.153 0 27.66 22.027 27.66 49.179 0 27.149-.507 49.141-27.66 49.141H129.18" fill="none" stroke="#fff" stroke-width="4"/><path d="M150.898 397.211L188.52 333.5c7.808-13.121 12.531 3.16 25.66 10.941 13.121 7.809 19.961 20.508 15.269 28.399l-33.75 56.789c-4.679 7.851-17.5 8.562-30.621.75" fill="#036998"/><path d="M150.898 397.211L188.52 333.5c7.808-13.121 12.531 3.16 25.66 10.941 13.121 7.809 19.961 20.508 15.269 28.399l-33.75 56.789c-4.679 7.851-17.5 8.562-30.621.75" fill="none" stroke="#fff" stroke-width="4"/></g></svg>
